icons/svg/road_shields/h_green_cshield_3_road_shield.svg

<?xml version="1.0" encoding="UTF-8" standalone="no"?>
<!-- Generator: Adobe Illustrator 16.0.4, SVG Export Plug-In . SVG Version: 6.00 Build 0)  -->

<svg
   xmlns:dc="http://purl.org/dc/elements/1.1/"
   xmlns:cc="http://creativecommons.org/ns#"
   xmlns:rdf="http://www.w3.org/1999/02/22-rdf-syntax-ns#"
   xmlns:svg="http://www.w3.org/2000/svg"
   xmlns="http://www.w3.org/2000/svg"
   xmlns:sodipodi="http://sodipodi.sourceforge.net/DTD/sodipodi-0.dtd"
   xmlns:inkscape="http://www.inkscape.org/namespaces/inkscape"
   version="1.1"
   id="Слой_1"
   x="0px"
   y="0px"
   width="33"
   height="30"
   viewBox="0 0 33 30"
   enable-background="new 0 0 17.143 17.17"
   xml:space="preserve"
   inkscape:version="0.91 r13725"
   sodipodi:docname="h_green_cshield_3_road_shield.svg"><metadata
     id="metadata13"><rdf:RDF><cc:Work
         rdf:about=""><dc:format>image/svg+xml</dc:format><dc:type
           rdf:resource="http://purl.org/dc/dcmitype/StillImage" /><dc:title></dc:title></cc:Work></rdf:RDF></metadata><defs
     id="defs11" /><sodipodi:namedview
     pagecolor="#ffffff"
     bordercolor="#666666"
     borderopacity="1"
     objecttolerance="10"
     gridtolerance="10"
     guidetolerance="10"
     inkscape:pageopacity="0"
     inkscape:pageshadow="2"
     inkscape:window-width="1920"
     inkscape:window-height="1006"
     id="namedview9"
     showgrid="false"
     inkscape:zoom="16.000001"
     inkscape:cx="14.840544"
     inkscape:cy="18.434367"
     inkscape:window-x="1920"
     inkscape:window-y="0"
     inkscape:window-maximized="1"
     inkscape:current-layer="Слой_1"
     showguides="false" /><path
     style="opacity:0.781;fill:#f1eae4;fill-opacity:1"
     d="m 16.443359,4.5488701 c -0.09502,0.00434 -0.189313,0.019269 -0.28125,0.044526 -2.096076,0.5730634 -4.311086,0.8803948 -6.6035152,0.8803948 -2.1718826,0 -4.2741432,-0.2750973 -6.2714844,-0.7913434 C 2.6676757,4.5229854 2.0265429,4.8436837 1.7617188,5.4454562 1.1210082,6.9027178 0.67458397,8.4614427 0.45703125,10.090298 0.35038299,11.255751 0.32553523,11.383035 0.3125,12.249796 c 0,8.960234 7.0639778,16.276478 16.041016,17.31241 0.09736,0.01122 0.195612,0.01122 0.292968,0 C 25.623527,28.526274 32.6875,21.210029 32.6875,12.249796 32.654622,11.478626 32.62849,11.021066 32.54297,10.090298 32.325454,8.4613913 31.878982,6.9026955 31.238281,5.4454562 30.973457,4.8436839 30.332324,4.5229858 29.712891,4.6824473 c -1.997253,0.5162564 -4.099595,0.7913434 -6.271485,0.7913434 -2.29243,0 -4.507413,-0.3073296 -6.603515,-0.8803948 -0.128609,-0.035277 -0.26161,-0.050287 -0.394532,-0.044526 z"
     id="path4160"
     inkscape:connector-curvature="0"
     sodipodi:nodetypes="ccsccccccccccscc" /><path
     style="fill:#006b54;fill-opacity:1"
     d="M 16.5,5.9210719 C 14.293901,6.5242155 11.965024,6.8459925 9.5585938,6.8459925 7.2788192,6.8459925 5.0688692,6.5574867 2.9667969,6.0141711 2.3806875,7.3472453 1.9741534,8.7697837 1.7734375,10.256258 l -0.00391,0 -0.074219,0.819678 c -0.016918,0.294405 -0.058594,0.875446 -0.058594,1.17386 0,8.21061 6.4880804,14.981823 14.8632815,15.948304 8.375205,-0.966481 14.863281,-7.737694 14.863281,-15.948304 0,-0.294888 -0.03117,-1.15907 -0.138672,-1.971275 l 0.0059,0 C 31.030885,8.7838924 30.622276,7.3539863 30.033203,6.0141711 27.931191,6.5575062 25.721181,6.8459925 23.441406,6.8459925 21.034975,6.8459925 18.70612,6.5242155 16.5,5.9210719 Z"
     id="path13"
     inkscape:connector-curvature="0" /></svg>

<svg width="33" height="30" viewBox="0 0 33 30" fill="none" xmlns="http://www.w3.org/2000/svg">
<path opacity="0.781" d="M16.4434 4.54887C16.3483 4.55321 16.254 4.56814 16.1621 4.59339C14.066 5.16646 11.851 5.47379 9.55859 5.47379C7.38671 5.47379 5.28445 5.19869 3.28711 4.68245C2.66768 4.52298 2.02654 4.84368 1.76172 5.44545C1.12101 6.90272 0.674584 8.46144 0.457031 10.0903C0.350383 11.2557 0.325535 11.383 0.3125 12.2498C0.3125 21.21 7.37648 28.5263 16.3535 29.5622C16.4509 29.5734 16.5491 29.5734 16.6465 29.5622C25.6235 28.5263 32.6875 21.21 32.6875 12.2498C32.6546 11.4786 32.6285 11.0211 32.543 10.0903C32.3255 8.46139 31.879 6.90269 31.2383 5.44545C30.9735 4.84368 30.3323 4.52298 29.7129 4.68245C27.7156 5.1987 25.6133 5.47379 23.4414 5.47379C21.149 5.47379 18.934 5.16646 16.8379 4.59339C16.7093 4.55812 16.5763 4.54311 16.4434 4.54887V4.54887Z" fill="#F1EAE4"/>
<path d="M16.5 5.92108C14.2939 6.52423 11.965 6.846 9.5586 6.846C7.27882 6.846 5.06887 6.5575 2.9668 6.01418C2.38069 7.34725 1.97416 8.76979 1.77344 10.2563H1.76953L1.69531 11.0759C1.67839 11.3704 1.63672 11.9514 1.63672 12.2498C1.63672 20.4604 8.1248 27.2316 16.5 28.1981C24.8752 27.2316 31.3633 20.4604 31.3633 12.2498C31.3633 11.9549 31.3321 11.0907 31.2246 10.2785H31.2305C31.0309 8.7839 30.6223 7.354 30.0332 6.01418C27.9312 6.55752 25.7212 6.846 23.4414 6.846C21.035 6.846 18.7061 6.52423 16.5 5.92108Z" fill="#006B54"/>
</svg>
